build/images/logo.svg

<svg width="130" height="54" viewBox="0 0 130 54" fill="none" xmlns="http://www.w3.org/2000/svg">
<path d="M26.0315 53.9678C19.0767 53.9678 12.5388 51.1591 7.62435 46.0654C2.70985 40.9652 -6.10352e-05 34.189 -6.10352e-05 26.9806C-6.10352e-05 19.7723 2.70985 12.996 7.62435 7.90238C12.5451 2.8087 19.0767 0 26.0315 0C32.9863 0 39.5242 2.8087 44.4386 7.90238C49.3531 12.996 52.063 19.7723 52.063 26.9806C52.063 34.189 49.3531 40.9652 44.4386 46.0589C39.5242 51.1591 32.9863 53.9678 26.0315 53.9678ZM26.0315 1.64987C19.7715 1.64987 13.5052 4.11813 8.74239 9.06118C-0.789661 18.9408 -0.789661 35.0204 8.74239 44.9065C18.2745 54.7861 33.7885 54.7861 43.3269 44.9065C52.8589 35.027 52.8589 18.9473 43.3269 9.06118C38.5577 4.11813 32.2977 1.64987 26.0315 1.64987Z" fill="#EAC57E"/>
<path d="M32.182 53.3167C27.5082 54.6146 22.6158 54.0551 18.3089 51.7132C13.7671 49.2466 10.422 45.0852 8.89469 40.0124C7.36581 34.9331 7.83772 29.5491 10.222 24.8337C10.3555 24.5661 10.4968 24.3032 10.6459 24.0449C10.8647 23.652 11.3484 23.5245 11.7275 23.7513C12.1066 23.9782 12.2296 24.4795 12.0108 24.8724C11.8768 25.1129 11.7488 25.3517 11.6226 25.597C9.43725 29.9182 9.0027 34.8649 10.4037 39.5255C11.8048 44.186 14.876 47.9964 19.047 50.2678C23.2162 52.5328 27.995 52.9815 32.4855 51.5311C36.9822 50.0789 40.6585 46.8957 42.8499 42.5727C45.0353 38.2515 45.4698 33.3048 44.0688 28.6442C42.6677 23.9837 39.5965 20.1733 35.4256 17.902C31.9334 16.0047 28.0435 15.3769 24.1723 16.086C23.7415 16.1649 23.3306 15.8657 23.256 15.4254C23.1798 14.9789 23.4686 14.553 23.8933 14.4757C28.1128 13.697 32.3515 14.3839 36.1559 16.452C40.6994 18.9249 44.0429 23.0799 45.5701 28.1527C47.099 33.2319 46.6288 38.6223 44.2428 43.3314C41.8569 48.0405 37.848 51.5059 32.9536 53.0888C32.6929 53.168 32.4382 53.2454 32.182 53.3167Z" fill="#EAC57E"/>
<path d="M66.2558 29.3003L74.5952 39.7067H78.8797L71.6521 30.7918C75.5768 30.08 77.5712 26.8936 77.5712 23.5379C77.5712 19.7753 75.0857 15.6738 70.1152 15.6738H61.7751V39.7067H65.0457V19.1313H70.1152C72.8945 19.1313 74.2684 21.504 74.2684 23.5379C74.2684 25.6056 72.8945 27.6733 70.1152 27.6733H66.2558V29.3003ZM86.1957 36.2832V19.199H91.1015C96.3995 19.199 99.0817 23.6734 99.0817 27.8767C99.0817 32.0799 96.3995 36.2832 91.1015 36.2832H86.1957ZM82.8928 15.7754V39.7067H91.1015C98.5912 39.7067 102.352 33.8086 102.352 27.8767C102.352 21.9447 98.5912 15.7754 91.1015 15.7754H82.8928ZM129.386 24.3175C128.143 17.877 122.747 15.606 118.267 15.606C111.823 15.606 106.787 20.7244 106.787 27.8767C106.787 34.9951 111.726 40.1135 118.267 40.1135C122.518 40.1135 127.293 36.8933 128.896 32.2833V32.3172C129.222 31.5037 129.386 30.1478 129.55 28.1139H116.958V31.6054H125.592C124.219 35.1307 121.144 36.7577 118.267 36.7577C113.688 36.7577 110.156 32.9951 110.156 27.8767C110.156 22.7921 113.688 19.0973 118.267 19.0973C121.243 19.0973 124.84 20.4194 125.789 24.3175H129.386Z" fill="#EAC57E"/>
<path d="M63.3443 43.3987H62.1176V52.1971H67.3394V50.9258H63.3443V43.3987ZM70.1425 48.4335H73.9919V47.1497H70.1425V44.67H74.0772V43.3987H68.9037V52.1971H74.089V50.9258H70.1425V48.4335ZM74.6305 43.3987C75.408 44.5189 76.7924 46.5203 77.7031 47.8168L74.6305 52.1971H76.1363L78.4439 48.8993L80.7632 52.1971H82.2572C81.4436 51.0265 80.0953 49.1133 79.1846 47.8168L82.2572 43.3987H80.7632L78.4439 46.6965L76.1363 43.3987H74.6305Z" fill="#EAC57E"/>
</svg>

<svg width="130" height="54" fill="none" xmlns="http://www.w3.org/2000/svg"><path d="M26.032 53.968c-6.955 0-13.493-2.809-18.408-7.903C2.71 40.965 0 34.19 0 26.981c0-7.209 2.71-13.985 7.624-19.079C12.545 2.81 19.077 0 26.032 0c6.954 0 13.492 2.809 18.407 7.902 4.914 5.094 7.624 11.87 7.624 19.079 0 7.208-2.71 13.984-7.624 19.078-4.915 5.1-11.453 7.909-18.407 7.909zm0-52.318c-6.26 0-12.527 2.468-17.29 7.411-9.532 9.88-9.532 25.96 0 35.846 9.532 9.88 25.046 9.88 34.585 0 9.532-9.88 9.532-25.96 0-35.846-4.77-4.943-11.03-7.411-17.295-7.411z" fill="#EAC57E"/><path d="M32.182 53.317c-4.674 1.298-9.566.738-13.873-1.604-4.542-2.466-7.887-6.628-9.414-11.7a20.428 20.428 0 011.75-15.968.774.774 0 011.082-.294c.38.227.503.729.284 1.121a18.765 18.765 0 00-1.607 14.653c1.4 4.661 4.472 8.471 8.643 10.743 4.17 2.265 8.948 2.713 13.439 1.263 4.496-1.452 8.172-4.635 10.364-8.958a18.764 18.764 0 001.219-13.929c-1.401-4.66-4.473-8.47-8.643-10.742-3.493-1.897-7.383-2.525-11.254-1.816a.794.794 0 01-.916-.66c-.076-.447.213-.873.637-.95 4.22-.779 8.459-.092 12.263 1.976 4.543 2.473 7.887 6.628 9.414 11.7 1.529 5.08 1.059 10.47-1.327 15.18-2.386 4.709-6.395 8.174-11.29 9.757-.26.079-.515.156-.771.228zM66.256 29.3l8.34 10.407h4.284l-7.228-8.915c3.925-.712 5.92-3.898 5.92-7.254 0-3.763-2.486-7.864-7.457-7.864h-8.34v24.033h3.27V19.13h5.07c2.78 0 4.153 2.373 4.153 4.407 0 2.068-1.374 4.135-4.153 4.135h-3.86V29.3zm19.94 6.983V19.2h4.906c5.297 0 7.98 4.474 7.98 8.678 0 4.203-2.682 8.406-7.98 8.406h-4.906zm-3.303-20.508v23.932h8.209c7.49 0 11.25-5.898 11.25-11.83s-3.76-12.102-11.25-12.102h-8.21zm46.493 8.542c-1.243-6.44-6.639-8.711-11.119-8.711-6.444 0-11.48 5.118-11.48 12.27 0 7.12 4.939 12.238 11.48 12.238 4.251 0 9.026-3.22 10.629-7.83v.033c.326-.813.49-2.17.654-4.203h-12.592v3.491h8.634c-1.373 3.526-4.448 5.153-7.325 5.153-4.579 0-8.111-3.763-8.111-8.881 0-5.085 3.532-8.78 8.111-8.78 2.976 0 6.573 1.322 7.522 5.22h3.597zM63.344 43.399h-1.226v8.798h5.221v-1.271h-3.995v-7.527zm6.798 5.035h3.85V47.15h-3.85v-2.48h3.935v-1.271h-5.173v8.798h5.185v-1.271h-3.947v-2.492zm4.489-5.035c.777 1.12 2.161 3.121 3.072 4.418l-3.073 4.38h1.506l2.308-3.298 2.32 3.298h1.493c-.813-1.17-2.162-3.084-3.072-4.38l3.072-4.418h-1.494l-2.32 3.297-2.307-3.297h-1.505z" fill="#EAC57E"/></svg>
